themes/gwen-portfolio/assets/heading-logo.svg

<?xml version="1.0" encoding="UTF-8"?>
<svg width="68px" height="68px" viewBox="0 0 68 68" version="1.1" xmlns="http://www.w3.org/2000/svg" xmlns:xlink="http://www.w3.org/1999/xlink">
    <!-- Generator: Sketch 45.1 (43504) - http://www.bohemiancoding.com/sketch -->
    <title>HEADING LOGO</title>
    <desc>Created with Sketch.</desc>
    <defs>
        <linearGradient x1="86.0511218%" y1="13.4888464%" x2="13.4695811%" y2="85.7036297%" id="linearGradient-1">
            <stop stop-color="#FF6CA4" offset="0%"></stop>
            <stop stop-color="#9762E1" offset="77.315212%"></stop>
            <stop stop-color="#9862E1" offset="77.5771878%"></stop>
            <stop stop-color="#9762E1" offset="78.6999956%"></stop>
            <stop stop-color="#9862E1" offset="81.6673891%"></stop>
            <stop stop-color="#878DFF" offset="100%"></stop>
        </linearGradient>
    </defs>
    <g id="v1" stroke="none" stroke-width="1" fill="none" fill-rule="evenodd">
        <g id="LANDING-PAGE3-Copy" transform="translate(-152.000000, -23.000000)">
            <g id="Group-17" transform="translate(-3.000000, 0.000000)">
                <g id="HEADING-LOGO" transform="translate(155.000000, 23.000000)">
                    <circle id="Oval" fill="url(#linearGradient-1)" cx="34" cy="34" r="34"></circle>
                    <path d="M32.1556858,51.7361192 L17.2859563,43.8055969 L17.2859563,43.7865331 L17.2859563,24.8957206 L30.9941851,19.3267527 L31.1266496,19.272939 L31.0190222,19.00801 L30.8865577,19.0618237 L17.1865334,24.6274586 L17,24.6274586 L17,24.7704368 L17,43.7865331 L17,43.9295113 L17.0524253,43.9295113 L17.0210262,43.9883846 L17.1471834,44.0556685 L32.159891,52.0624459 L32.2860482,52.1297297 L32.3892168,51.9362887 L32.4416421,51.9362887 L32.4416421,51.7933105 L32.4416421,32.7772142 L32.4416421,32.634236 L32.2613517,32.634236 L32.2146479,32.6105552 L22.1403842,27.5024778 L22.0128618,27.4378186 L21.8835434,27.6928633 L22.0110658,27.7575225 L32.0853294,32.8655998 L32.1556858,32.9012735 L32.1556858,51.7361192 Z M49.546597,26.2002185 L49.5990223,26.2002185 L49.5990223,26.3431966 L49.5990223,45.359293 L49.5990223,45.5022711 L49.3959032,45.5022711 L49.4278551,45.5809219 L49.2953906,45.6347356 L35.5694864,51.2108842 L35.437022,51.2646979 L35.3293946,50.9997689 L35.461859,50.9459552 L49.1877632,45.3698066 L49.3130659,45.3189024 L49.3130659,26.3431966 L49.3130659,26.3241329 L34.3045636,18.3195983 L34.1784064,18.2523144 L34.312974,18 L34.4391312,18.0672838 L49.4518389,26.0740612 L49.5779961,26.1413451 L49.546597,26.2002185 Z M34.4433365,31.9253816 L34.4433365,31.9908343 L34.1573801,31.9908343 L34.1573801,31.8478561 L34.1573801,18.5508865 L34.1573801,18.4079083 L34.4433365,18.4079083 L34.4433365,18.5508865 L34.4433365,31.6990856 L34.4968914,31.6773289 L44.9615864,27.4260466 L45.0940509,27.3722329 L45.2016783,27.6371618 L45.0692138,27.6909755 L34.6045188,31.9422579 L34.4720543,31.9960716 L34.4433365,31.9253816 Z" id="Combined-Shape" stroke="#FFFFFF" stroke-linecap="square"></path>
                </g>
            </g>
        </g>
    </g>
</svg>

<svg xmlns="http://www.w3.org/2000/svg" width="68" height="68"><title>HEADING LOGO</title><desc>Created with Sketch.</desc><defs><linearGradient id="a" x1="86.051%" x2="11.464%" y1="13.489%" y2="87.699%"><stop stop-color="#F5699E" offset="0%"/><stop stop-color="#9862E1" offset="77.315%"/><stop stop-color="#9862E1" offset="77.577%"/><stop stop-color="#9862E1" offset="78.7%"/><stop stop-color="#9862E1" offset="81.667%"/><stop stop-color="#6E73D6" offset="100%"/></linearGradient></defs><g fill="none"><g><g transform="translate(-123 -31) translate(123 31)"><circle cx="34" cy="34" r="34" fill="url(#a)"/><path stroke="#fff" d="M32.16 51.74L17.3 43.8V24.9L31 19.33l.13-.06-.1-.26-.14.06-13.7 5.57H17v19.29h.05l-.03.06.13.06 15 8 .14.07.1-.2h.04V32.63h-.18l-.05-.02-10.06-5.1-.13-.06-.12.25.13.06 10.1 5.1.06.04v18.84zm17.4-25.54h.04v19.3h-.2l.03.08-.13.05-13.73 5.58-.13.06-.1-.26.12-.05 13.73-5.58.1-.05v-19l-15-8-.12-.07.13-.25.14.07 15 8 .14.07-.03.06zm-15.12 5.73V32h-.28V18.4h.28v13.3l.06-.02 10.46-4.25.13-.06.1.27-.13.05-10.47 4.24-.13.06-.03-.07z" stroke-linecap="square"/></g></g></g></svg>
